X:6080
T:Sixpenny Money
O:england
R:double jig
C:Jig
M:6/8
L:1/8
K:D
fAA fAA|BAG FEF|DED AFA|def e2d:|
fdf gfg|afd ecA|fdf gfg|afd e2d|
fdf ~g3|faf edB|AFA AFA|def e2d:|


